icons/fill-new-nature-planet-universn-internet.svg

<svg xmlns="http://www.w3.org/2000/svg" width="32px" height="32px" viewBox="0 0 32 32" version="1.1">
    <title>fill-new-nature-planet-universn-internet</title>
    <g id="fill-new-nature-planet-universn-internet" stroke-width="1" fill-rule="evenodd">
        <path d="M16,20.5 C17.2956493,20.5 18.5500733,20.5586047 19.7407263,20.6651653 C19.1243014,26.1050321 17.5071478,30 16,30 C14.4928522,30 12.8756986,26.1050321 12.2589416,20.6660027 C13.4499267,20.5586047 14.7043507,20.5 16,20.5 Z M10.2594372,20.8970615 C10.6619932,24.5488684 11.5171686,27.6292747 12.7133666,29.6120765 C8.83253668,28.6784597 5.58113752,26.1281356 3.71163163,22.7134019 C5.08341013,22.0022486 7.19822979,21.3749434 9.76004797,20.9714378 L10.2594372,20.8970615 Z M21.7405716,20.8964518 C24.5268754,21.2946597 26.8284322,21.9565454 28.2879116,22.713331 C26.4188625,26.1281356 23.1674633,28.6784597 19.2864387,29.6121065 C20.4217309,27.7305414 21.2497661,24.8606499 21.675358,21.4520342 L21.7405716,20.8964518 Z M2.89256148,11.0713267 C4.67203245,12.0115641 7.16899324,12.7136807 10.0882652,13.1150751 C10.0297148,14.0501686 10,15.0147098 10,16 C10,16.9852902 10.0297148,17.9498314 10.0875266,18.885995 C7.16899324,19.2863193 4.67203245,19.9884359 2.89256148,20.9286733 C2.31552499,19.395854 2,17.7347744 2,16 C2,14.3282191 2.2930262,12.7248782 2.8305194,11.2385364 L2.89256148,11.0713267 Z M29.1076829,11.071019 C29.684475,12.604146 30,14.2652256 30,16 C30,17.7347744 29.684475,19.395854 29.1076829,20.928981 C27.3279675,19.9884359 24.8310068,19.2863193 21.9117348,18.8849249 C21.9702852,17.9498314 22,16.9852902 22,16 C22,15.0147098 21.9702852,14.0501686 21.9124734,13.114005 C24.7726554,12.7217039 27.2279786,12.0395123 28.9998749,11.1274221 L29.1076829,11.071019 Z M19.9168106,13.3364276 C19.971037,14.1986891 20,15.0891575 20,16 C20,16.9108425 19.971037,17.8013109 19.9168106,18.6635724 C18.6631997,18.555876 17.3511082,18.5 16,18.5 C14.6488918,18.5 13.3368003,18.555876 12.0833959,18.6634562 C12.028963,17.8013109 12,16.9108425 12,16 C12,15.0891575 12.028963,14.1986891 12.0831894,13.3364276 C13.3368003,13.444124 14.6488918,13.5 16,13.5 C17.0707848,13.5 18.1170635,13.4649047 19.1290445,13.3967906 L19.9168106,13.3364276 Z M16,2 L16.0957131,2.00519899 C17.5750689,2.1653568 19.1373386,6.00994032 19.7410584,11.3339973 C18.5500733,11.4413953 17.2956493,11.5 16,11.5 C14.7043507,11.5 13.4499267,11.4413953 12.2592737,11.3348347 C12.8756986,5.89496788 14.4928522,2 16,2 Z M12.7133666,2.38792352 C11.5171686,4.37072532 10.6619932,7.45113159 10.2594372,11.1029385 C7.4731246,10.7053403 5.17156775,10.0434546 3.71208842,9.286669 C5.51325993,5.995875 8.59820628,3.50791374 12.2932626,2.49597182 L12.7133666,2.38792352 Z M19.2864387,2.38789353 C23.1674633,3.3215403 26.4188625,5.87186444 28.2883684,9.28659813 C26.8284322,10.0434546 24.5268754,10.7053403 21.7405716,11.1035482 C21.3506743,7.56604562 20.5362041,4.56515784 19.3985417,2.57835047 L19.2864387,2.38789353 Z" id="&#24418;&#29366;" />
    </g>
</svg>

<svg xmlns="http://www.w3.org/2000/svg" viewBox="0 0 32 32"><path fill="currentColor" d="M16 20.5c1.296 0 2.55.059 3.74.165C19.125 26.105 17.508 30 16 30c-1.507 0-3.124-3.895-3.741-9.334A41.765 41.765 0 0 1 16 20.5m-5.74.397c.402 3.652 1.257 6.732 2.453 8.715a14.027 14.027 0 0 1-9.001-6.899c1.371-.71 3.486-1.338 6.048-1.742zm11.48 0c2.787.398 5.088 1.06 6.548 1.816a14.025 14.025 0 0 1-9.002 6.9c1.136-1.882 1.964-4.752 2.39-8.161zM2.894 11.07c1.779.94 4.276 1.643 7.195 2.044a46.886 46.886 0 0 0 0 5.77c-2.919.401-5.416 1.103-7.195 2.044A13.961 13.961 0 0 1 2 16c0-1.672.293-3.275.83-4.761zm26.215 0A13.97 13.97 0 0 1 30 16a13.97 13.97 0 0 1-.892 4.929c-1.78-.94-4.277-1.643-7.196-2.044a46.886 46.886 0 0 0 0-5.77c2.86-.393 5.316-1.075 7.088-1.988zm-9.191 2.265a42.49 42.49 0 0 1 0 5.328A45.88 45.88 0 0 0 16 18.5a45.92 45.92 0 0 0-3.917.163 42.323 42.323 0 0 1 0-5.327A45.88 45.88 0 0 0 16 13.5c1.07 0 2.117-.035 3.129-.103zM16 2l.096.005c1.48.16 3.041 4.005 3.645 9.329a42.073 42.073 0 0 1-7.482 0C12.876 5.896 14.493 2 16 2m-3.287.388c-1.196 1.983-2.051 5.063-2.454 8.715-2.786-.398-5.087-1.06-6.547-1.816a14.03 14.03 0 0 1 8.581-6.791zm6.573 0a14.027 14.027 0 0 1 9.002 6.899c-1.46.756-3.761 1.418-6.547 1.817-.39-3.538-1.205-6.539-2.342-8.526z"/></svg>
